svgs/solid/ferry.svg

<svg xmlns="http://www.w3.org/2000/svg" viewBox="0 0 576 512"><!--! Font Awesome Pro 6.4.2 by @fontawesome - https://fontawesome.com License - https://fontawesome.com/license (Commercial License) Copyright 2023 Fonticons, Inc. --><path d="M224 0H352c17.7 0 32 14.3 32 32h75.1c20.6 0 31.6 24.3 18.1 39.8L456 96H120L98.8 71.8C85.3 56.3 96.3 32 116.9 32H192c0-17.7 14.3-32 32-32zM96 128H480c17.7 0 32 14.3 32 32V283.5c0 13.3-4.2 26.3-11.9 37.2l-51.4 71.9c-1.9 1.1-3.7 2.2-5.5 3.5c-15.5 10.7-34 18-51 19.9H375.6c-17.1-1.8-35-9-50.8-19.9c-22.1-15.5-51.6-15.5-73.7 0c-14.8 10.2-32.5 18-50.6 19.9H183.9c-17-1.8-35.6-9.2-51-19.9c-1.8-1.3-3.7-2.4-5.6-3.5L75.9 320.7C68.2 309.8 64 296.8 64 283.5V160c0-17.7 14.3-32 32-32zm32 64v96H448V192H128zM306.5 421.9C329 437.4 356.5 448 384 448c26.9 0 55.3-10.8 77.4-26.1l0 0c11.9-8.5 28.1-7.8 39.2 1.7c14.4 11.9 32.5 21 50.6 25.2c17.2 4 27.9 21.2 23.9 38.4s-21.2 27.9-38.4 23.9c-24.5-5.7-44.9-16.5-58.2-25C449.5 501.7 417 512 384 512c-31.9 0-60.6-9.9-80.4-18.9c-5.8-2.7-11.1-5.3-15.6-7.7c-4.5 2.4-9.7 5.1-15.6 7.7c-19.8 9-48.5 18.9-80.4 18.9c-33 0-65.5-10.3-94.5-25.8c-13.4 8.4-33.7 19.3-58.2 25c-17.2 4-34.4-6.7-38.4-23.9s6.7-34.4 23.9-38.4c18.1-4.2 36.2-13.3 50.6-25.2c11.1-9.4 27.3-10.1 39.2-1.7l0 0C136.7 437.2 165.1 448 192 448c27.5 0 55-10.6 77.5-26.1c11.1-7.9 25.9-7.9 37 0z"/></svg>

<svg xmlns="http://www.w3.org/2000/svg" viewBox="0 0 576 512"><!--! Font Awesome Pro 6.1.1 by @fontawesome - https://fontawesome.com License - https://fontawesome.com/license (Commercial License) Copyright 2022 Fonticons, Inc. --><path d="M352 0C369.7 0 384 14.33 384 32H459.1C479.7 32 490.7 56.29 477.2 71.8L456 96H119.1L98.83 71.8C85.25 56.29 96.27 32 116.9 32H191.1C191.1 14.33 206.3 0 223.1 0L352 0zM95.1 128H480C497.7 128 512 142.3 512 160V283.5C512 296.8 507.8 309.8 500.1 320.7L448.7 392.6C446.8 393.7 444.1 394.9 443.2 396.1C427.7 406.8 409.1 414.2 392.1 416H375.6C358.5 414.2 340.6 406.1 324.8 396.1C302.8 380.6 273.3 380.6 251.2 396.1C236.3 406.3 218.7 414.1 200.5 416H183.9C166.9 414.2 148.3 406.8 132.9 396.1C131.1 394.8 129.2 393.7 127.3 392.6L75.92 320.7C68.17 309.8 64 296.8 64 283.5V160C64 142.3 78.33 128 96 128H95.1zM127.1 288H448V192H127.1V288zM384 448C410.9 448 439.4 437.2 461.4 421.9L461.5 421.9C473.4 413.4 489.5 414.1 500.7 423.6C515 435.5 533.2 444.6 551.3 448.8C568.5 452.8 579.2 470.1 575.2 487.3C571.2 504.5 553.1 515.2 536.7 511.2C512.2 505.4 491.9 494.6 478.5 486.2C449.5 501.7 417 512 384 512C352.1 512 323.4 502.1 303.6 493.1C297.7 490.5 292.5 487.8 288 485.4C283.5 487.8 278.3 490.5 272.4 493.1C252.6 502.1 223.9 512 192 512C158.1 512 126.5 501.7 97.5 486.2C84.12 494.6 63.79 505.4 39.27 511.2C22.06 515.2 4.853 504.5 .8422 487.3C-3.169 470.1 7.532 452.8 24.74 448.8C42.84 444.6 60.96 435.5 75.31 423.6C86.46 414.1 102.6 413.4 114.5 421.9L114.6 421.9C136.7 437.2 165.1 448 192 448C219.5 448 247 437.4 269.5 421.9C280.6 414 295.4 414 306.5 421.9C328.1 437.4 356.5 448 384 448H384z"/></svg>
